www/assets/icons/exposure_plus_1.svg

<svg xmlns="http://www.w3.org/2000/svg" width="24" height="24" viewBox="0 0 24 24" fill='currentColor'><path d="M10 7.5H8v4H4v2h4v4h2v-4h4v-2h-4zm10 11h-2V7.88L15 8.9V7.2l4.7-1.7h.3z"/></svg>

<svg width="24" height="24" viewBox="0 0 24 24" xmlns="http://www.w3.org/2000/svg" fill='currentColor'><path d="M10 7.5H8V11.5H4V13.5H8V17.5H10V13.5H14V11.5H10V7.5ZM20 18.5H18V7.88L15 8.9V7.2L19.7 5.5H20V18.5Z"/></svg>
